!!!COM: Robert Schumann
!!!CNT: Deutscher
!!!TXO: Deutsche 
!!!OTL: Du Ring an meinem Finger
!!!OPR: Frauenliebe und Leben
!!!OPS: Opus 42
!!!ONM: No. 4
!!!LYR: Chamisso
!!!ENC: Brian Bice
!!!YOR: Sa2mtliche Lieder, vol. 1, C.F. Peters
!!!ODT: 1840/
!!NB: Vocal melody and text only encoded.
**kern	**silbe
*clefG2	*
*k[b-e-a-]	*
*M4/4	*
=0	=0
2.r	.
{4g	{Du
=1	=1
4.g	Ring
8b-	an
4e-	mein-
4g	-em
=2	=2
(4.c	Fin-
8d)	|
4e-}	-ger,}
{(8e-	{mein
8f)	|
=3	=3
4g	gol-
8g	-de-
8an	-nes
4.b-	Rin-
8an	-ge-
=4	=4
2.a-}	-lein,}
{(8g	{ich
8f)	|
=5	=5
4g	dru2k-
8g	-ke
8b-	dich
4e-	fromm
8e-	an
8g	die
=6	=6
(4.c	Lip-
8d)	|
4e-}	-pen,}
{(8e-	{dich
8f)	|
=7	=7
4g	fromm
8g	an
8an	die
8b-	Lip-
8b-}	-pen,}
{8dd	{an
8cc	das
=8	=8
4.b-	Her-
8an	-ze
4b-}	mein.}
8r	.
{8b-	{Ich
=9	=9
4.b-	hatt'
8d	ihn
(4e-	aus-
8f)	|
8g	-ge-
=10	=10
2a-	-tra2u-
4g}	-met,}
8r	.
{8b-	{der
=11	=11
4b-	Kind-
4d	-heit
(4e-	fried-
8f)	|
8g	-lich
=12	=12
4a-	scho2-
4b-	-nen
4e-}	Traum,}
8r	.
{8e-	{ich
=13	=13
4.e-	fand
8e-	al-
4cc	-lein
8b-	mich,
8b-	ver-
=14	=14
4b-	-lo-
2a-}	-ren}
{4g	{im
=15	=15
4f	o2-
8f	-den
8f	un-
4g-	-end-
8f	-li-
8e-	-chen
=16	=16
2b-}	Raum,}
4r	.
{(8f	{Du
8f#)	|
=17	=17
4.g	Ring
8b-	an
4.e-	mei-
8g	-nem
=18	=18
(4.c	Fin-
8d)	|
4e-}	-ger,}
{(8e-	{da
8f)	|
=19	=19
4g	hast
8g	du
8an	mich-
4.b-	-erst
8a-	be-
=20	=20
2.a-}	-lehrt,}
{(8g	{hast
8f)	|
=21	=21
4.g	mei-
8b-	-nem
4.e-	Blick
8g	er-
=22	=22
(4.c	-schlos-
8d)	|
4e-}	-sen}
{(8e-	{des
8f)	|
=23	=23
4g	Le-
8g	-bens
8an	un-
4b-	-end-
8dd	-li-
8cc	-chen,
=24	=24
4.b-	tie-
8an	-fen
4b-}	Wert.}
8.r	.
{16cc	{Ich
=25	=25
4.cc	will
8en	ihm
4g	dien-
8f	-en,
8cc	ihm
=26	=26
(4.dd	le-
8f#)	|
4g}	-ben,}
{4ee-	{ihm
=27	=27
4.ee-	an-
8ee-	-ge-
4een	-ho2-
4een	-ren
=28	=28
2.ff}	ganz,}
{4ee-	{hin
=29	=29
(8ee-	sel-
8dd)	|
8cc	-ber
8b-	mich
4ee-	ge-
8b-	-ben
8b-	und
=30	=30
4cc	fin-
8ee-	-den
8ee-	verk
4dd	la2rt
8an}	mich,}
{8an	{und
=31	=31
4b-	fin-
8dd	-den
8cc	verk-
4b-	-la2rt
8a-	mich
8a-	in
=32	=32
(4g	sei-
8b-)	|
8a-	-nem
4f}	Glanz.}
{(8e-	{Du
8f)	|
=33	=33
4.g	Ring
8b-	an
4e-	mei-
4g	-nem
=34	=34
(4.c	Fin-
8d)	|
4e-}	-ger,}
{(8e-	{mein
8f)	|
=35	=35
4g	gol-
8g	-de-
8a	-nes
4.b-	Rin-
8an	-ge-
=36	=36
2.a-}	-lein,}
{(8g	{ich
8f)	|
=37	=37
4g	dru2k-
8g	-ke
8b-	dich
4e-	fromm
8e-	an
8g	die
=38	=38
(4.c	Lip-
8d)	|
4e-}	-pen,}
{4f	{dich
=39	=39
4g	fromm
8b-	an
8b-	die
8an	Lip-
8ee-	-pen,
8dd	an
8cc	das
=40	=40
4.b-	Her-
8d	-ze
4e-}	mein.}
4r	.
*-	*-
